svg/u1f991.svg

<svg viewBox="0 0 128 128" xmlns="http://www.w3.org/2000/svg">
  <path d="M49.57,28.22c-0.39-0.45-3.1,2.53-5.35,4.32c-1.36,1.07-12.2,8.92-15.96,13.51 s-5.06,12.94-1.69,17.93c5.26,7.79,12.11,9.85,12.11,9.85l15.49,13.89c0,0,4.6,9.06,8.82,12.29c2.8,2.15,6.3,4.93,12.29,4.13 c7.7-1.03,13.24-8.93,15.3-12.01c2.63-3.94,5.16-9.01,8.82-10.7c3.66-1.69,0.38-6.95-2.72-4.32c-3.1,2.63-15.86,17.64-18.58,18.3 c-2.72,0.66-7.41,0.66-9.85-1.03c-2.44-1.69-5.11-6.05-5.11-8.4c0-2.35,0.69-5.08,3.33-6.15c3.94-1.6,6.19-0.75,8.54-2.16 c2.11-1.26,24.03-26,24.03-26s4.22,7.04,9.39,6.76c3.62-0.2,4.69-19.52,4.69-19.52s-0.07-7.63-1.6-10.7 c-1.36-2.75-5.27-10.1-11.26-12.29c-7.41-2.72-20.27-0.56-20.27-0.56s-9.39,3.38-9.57,5.07c-0.19,1.69,0.09,3.57,2.82,6.48 c1.5,1.61,4.32,2.91,4.32,2.91l-22.9,22.9c0,0-4.97,1.13-5.07,4.5c-0.05,1.75,0.09,3.75-0.84,6.19c-0.69,1.8-6.57,4.46-10.89,2.02 c-4.46-2.52-7.41-5.3-6.76-11.03S57.08,36.85,49.57,28.22z" fill="#A363AF"/>
  <path d="M111.33,16.58c-1.5-1.5-12.86,1.5-31.72,10.89s-29.46,23-29.94,29.09 c-0.47,6.01,4.04,11.36,7.51,14.36c3.47,3,10.42,8.63,16.71,7.23c6.29-1.41,22.61-16.98,29.47-32.57 C109.54,31.5,113.2,18.46,111.33,16.58z" fill="#EE7FAD"/>
  <path d="M70.41,20.8c-0.17,3.84,5.44,4.56,7.88,3.66c2.82-1.03,8.45-4.22,11.36-5.35 c2.91-1.13,10.15-3.27,9.48-3.66c-1.57-0.92-12.48-3.57-21.87-1.13C71.59,15.8,70.5,18.65,70.41,20.8z" fill="#EE7FAC"/>
  <path d="M112.08,29.72c0,0-1.97,7.79-3.1,10.79c-1.13,3-4.75,11.16-4.6,13.89c0.19,3.38,3.38,5.73,7.41,2.63 c4.04-3.1,3.66-13.14,3.38-15.3C114.89,39.57,113.86,31.5,112.08,29.72z" fill="#EE7FAC"/>
  <path d="M52.39,76.18c-2.72-2.91-8.82-8.07-8.82-8.07s-4.6,7.04-9.01,7.13c-4.41,0.09-7.79-8.54-11.07-12.86 s-8.26-5.35-11.45-4.69c-3.19,0.66-7.6,3.94-6.01,6.66c1.85,3.16,6.1-1.31,9.1-0.75c3,0.56,5.26,4.41,7.04,7.51 c1.78,3.1,4.66,6.29,6.38,7.7c3.28,2.67,7.7,2.06,7.7,2.06s-4.9,7.83-12.15,7.23c-7.93-0.66-8.68-5.82-8.12-8.17 s4.88-3.19,4.22-5.54c-0.66-2.35-6.19-3.24-9.1,1.83c-2.91,5.07-0.14,10.65,3.61,13.75c3.75,3.1,10.46,3.94,14.69,3.38 c3.96-0.53,7.91-2.47,8.26-2.16c0.42,0.38-1.78,5.91-1.97,10.89c-0.15,3.95,0.67,12.28,7.04,15.11c5.82,2.58,10.84,0.52,12.58-1.03 c1.42-1.26,2.72-5.35,0.19-6.48c-2.42-1.07-2.67,3.66-8.35,2.91c-3.69-0.49-5.95-6.33-5.91-9.15c0.09-6.66,6.38-10,6.38-10 s-0.23,3.47,1.74,6.71c2.36,3.88,7.74,6.34,10.09,7.84c1.6,1.02,5.96,3.1,6.29,6.76c0.26,2.91-2.92,4.84-1.03,7.04 c1.69,1.97,6.62-2.25,6.99-6.29s-2.58-8.07-6.99-11.17c-4.41-3.1-10.51-3.75-11.07-9.85c-0.32-3.45,7.79-9.01,7.79-9.01 S55.11,79.09,52.39,76.18z" fill="#EE7FAC"/>
  <path d="M67.31,93.63c0,0,3.88,2.57,7.41,1.69c6.76-1.69,10.66-9.1,12.39-11.54 c2.96-4.18,8.3-10.79,13.98-13.05c6.38-2.53,12.2-1.22,15.67,0.47c3.47,1.69,7.41,5.54,6.01,6.85c-1.41,1.31-5.94,1.66-9.81,3.1 c-4.18,1.55-5.48,4.1-8.49,2.91c-1.78-0.7-2.06-2.35-4.79-3.1c-2.06-0.56-5.73,1.78-8.63,5.26c-3.21,3.83-7.91,9.9-13.7,10.98 C71.81,98.23,68.06,95.7,67.31,93.63z" fill="#EE7FAC"/>
  <path d="M48.44,15.17c-0.74,2.8-3.75,6.57-3.57,8.63c0.19,2.06,4.1,4.04,2.25,6.29 c-4.41,5.35-10.28,10.47-12.58,12.67C30.14,46.99,28.83,51.4,29.3,56c0.54,5.34,6.48,8.18,6.29,7.98c-1.5-1.6-4.22-4.41-2.91-7.98 c1.46-3.96,5.35-8.07,13.42-14.27s14.17-10.04,13.7-21.02S54.83,4.76,52.01,5.69C48.77,6.77,49.85,9.82,48.44,15.17z" fill="#EE7FAC"/>
  <ellipse cx="69.68" cy="47.55" fill="#FEA7A5" rx="2.47" ry="2.44"/>
  <ellipse cx="85.52" cy="49.66" fill="#FEA7A5" rx="2.16" ry="2.21"/>
  <ellipse cx="80.35" cy="38.03" fill="#FEA7A5" rx="1.97" ry="2.02"/>
  <ellipse cx="90.68" cy="27.47" fill="#FEA7A5" rx="1.97" ry="2.06"/>
  <circle cx="94.53" cy="35.16" fill="#FEA7A5" r="1.97"/>
  <circle cx="104.52" cy="29.58" fill="#FEA7A5" r="1.83"/>
  <ellipse cx="96.5" cy="44.92" fill="#FEA7A5" rx="1.92" ry="1.88" transform="matrix(0.4145 -0.91 0.91 0.4145 15.6151 114.1195)"/>
  <circle cx="66.56" cy="62.19" fill="#FEA7A5" r="2.06"/>
  <ellipse cx="78.52" cy="61.63" fill="#FEA7A5" rx="2.02" ry="2.16"/>
  <path d="M50.32,68.29c0.47,3.38-2.63,6.19-5.44,5.73c-2.69-0.45-4.04-2.39-4.04-5.16s1.95-4.69,4.69-4.69 C48.28,64.16,49.96,65.66,50.32,68.29z" fill="#2D2E31"/>
  <path d="M65.15,82.37c0.47,3.38-2.14,6.01-5.63,5.44c-2.3-0.38-4.13-2.39-4.13-5.16s2.04-4.5,4.79-4.5 C62.92,78.15,64.78,79.74,65.15,82.37z" fill="#2D2E31"/>
  <path d="M52.53,15.08c0,0,2.11-0.56,2.21-2.53c0.09-1.83-1.08-2.96-2.58-2.91c-1.5,0.05-2.44,1.5-2.35,2.86 c0.08,1.17,1.03,2.02,1.03,2.02s-1.59-0.28-2.25,1.5c-0.75,2.02,0.89,2.82,0.89,2.82s-1.92-0.33-2.77,1.17 c-0.77,1.37-0.7,2.77,0.99,3.89c1.17,0.78,3.11-0.33,3.57-1.64c0.52-1.5-0.7-3-0.7-3s1.89,0.49,2.53-1.55 C53.65,15.92,52.53,15.08,52.53,15.08z" fill="#A363AF"/>
  <path d="M114.84,76.93c0,0,0.09-1.78,2.35-1.97c1.37-0.11,2.67,0.56,2.77,2.06c0.09,1.5-0.56,2.44-1.97,2.72 c-1.63,0.33-2.72-0.47-2.72-0.47s-0.14,1.09-1.69,1.69c-1.83,0.7-3-0.47-3-0.47s0.12,1.69-1.13,2.35c-1.69,0.89-3.33,0.47-3.99-0.99 c-0.76-1.68-0.09-3.1,1.41-3.71c1.97-0.8,3.05,0.66,3.05,0.66s-0.17-2.04,1.92-2.72C113.72,75.47,114.84,76.93,114.84,76.93z" fill="#A363AF"/>
</svg>

<svg viewBox="0 0 128 128" xmlns="http://www.w3.org/2000/svg">
  <defs/>
  <path d="M49.57,28.22 C49.18,27.77 46.47,30.75 44.22,32.54 C42.86,33.61 32.02,41.46 28.26,46.05 C24.5,50.64 23.2,58.99 26.57,63.98 C31.83,71.77 38.68,73.83 38.68,73.83 L54.17,87.72 C54.17,87.72 58.77,96.78 62.99,100.01 C65.79,102.16 69.29,104.94 75.28,104.14 C82.98,103.11 88.52,95.21 90.58,92.13 C93.21,88.19 95.74,83.12 99.4,81.43 C103.06,79.74 99.78,74.48 96.68,77.11 C93.58,79.74 80.82,94.75 78.1,95.41 C75.38,96.07 70.69,96.07 68.25,94.38 C65.81,92.69 63.14,88.33 63.14,85.98 C63.14,83.63 63.83,80.9 66.47,79.83 C70.41,78.23 72.66,79.08 75.01,77.67 C77.12,76.41 99.04,51.67 99.04,51.67 C99.04,51.67 103.26,58.71 108.43,58.43 C112.05,58.23 113.12,38.91 113.12,38.91 C113.12,38.91 113.05,31.28 111.52,28.21 C110.16,25.46 106.25,18.11 100.26,15.92 C92.85,13.2 79.99,15.36 79.99,15.36 C79.99,15.36 70.6,18.74 70.42,20.43 C70.23,22.12 70.51,24 73.24,26.91 C74.74,28.52 77.56,29.82 77.56,29.82 L54.66,52.72 C54.66,52.72 49.69,53.85 49.59,57.22 C49.54,58.97 49.68,60.97 48.75,63.41 C48.06,65.21 42.18,67.87 37.86,65.43 C33.4,62.91 30.45,60.13 31.1,54.4 C31.75,48.67 57.08,36.85 49.57,28.22 Z" fill="#A363AF"/>
  <path d="M111.33,16.58 C109.83,15.08 98.47,18.08 79.61,27.47 C60.75,36.86 50.15,50.47 49.67,56.56 C49.2,62.57 53.71,67.92 57.18,70.92 C60.65,73.92 67.6,79.55 73.89,78.15 C80.18,76.74 96.5,61.17 103.36,45.58 C109.54,31.5 113.2,18.46 111.33,16.58 Z" fill="#EE7FAD"/>
  <path d="M70.41,20.8 C70.24,24.64 75.85,25.36 78.29,24.46 C81.11,23.43 86.74,20.24 89.65,19.11 C92.56,17.98 99.8,15.84 99.13,15.45 C97.56,14.53 86.65,11.88 77.26,14.32 C71.59,15.8 70.5,18.65 70.41,20.8 Z" fill="#EE7FAC"/>
  <path d="M112.08,29.72 C112.08,29.72 110.11,37.51 108.98,40.51 C107.85,43.51 104.23,51.67 104.38,54.4 C104.57,57.78 107.76,60.13 111.79,57.03 C115.83,53.93 115.45,43.89 115.17,41.73 C114.89,39.57 113.86,31.5 112.08,29.72 Z" fill="#EE7FAC"/>
  <path d="M52.39,76.18 C49.67,73.27 43.57,68.11 43.57,68.11 C43.57,68.11 38.97,75.15 34.56,75.24 C30.15,75.33 26.77,66.7 23.49,62.38 C20.21,58.06 15.23,57.03 12.04,57.69 C8.85,58.35 4.44,61.63 6.03,64.35 C7.88,67.51 12.13,63.04 15.13,63.6 C18.13,64.16 20.39,68.01 22.17,71.11 C23.95,74.21 26.83,77.4 28.55,78.81 C31.83,81.48 36.25,80.87 36.25,80.87 C36.25,80.87 31.35,88.7 24.1,88.1 C16.17,87.44 15.42,82.28 15.98,79.93 C16.54,77.58 20.86,76.74 20.2,74.39 C19.54,72.04 14.01,71.15 11.1,76.22 C8.19,81.29 10.96,86.87 14.71,89.97 C18.46,93.07 25.17,93.91 29.4,93.35 C33.36,92.82 37.31,90.88 37.66,91.19 C38.08,91.57 35.88,97.1 35.69,102.08 C35.54,106.03 36.36,114.36 42.73,117.19 C48.55,119.77 53.57,117.71 55.31,116.16 C56.73,114.9 58.03,110.81 55.5,109.68 C53.08,108.61 52.83,113.34 47.15,112.59 C43.46,112.1 41.2,106.26 41.24,103.44 C41.33,96.78 47.62,93.44 47.62,93.44 C47.62,93.44 47.39,96.91 49.36,100.15 C51.72,104.03 57.1,106.49 59.45,107.99 C61.05,109.01 65.41,111.09 65.74,114.75 C66,117.66 62.82,119.59 64.71,121.79 C66.4,123.76 71.33,119.54 71.7,115.5 C72.07,111.46 69.12,107.43 64.71,104.33 C60.3,101.23 54.2,100.58 53.64,94.48 C53.32,91.03 61.43,85.47 61.43,85.47 C61.43,85.47 55.11,79.09 52.39,76.18 Z" fill="#EE7FAC"/>
  <path d="M67.31,93.63 C67.31,93.63 71.19,96.2 74.72,95.32 C81.48,93.63 85.38,86.22 87.11,83.78 C90.07,79.6 95.41,72.99 101.09,70.73 C107.47,68.2 113.29,69.51 116.76,71.2 C120.23,72.89 124.17,76.74 122.77,78.05 C121.36,79.36 116.83,79.71 112.96,81.15 C108.78,82.7 107.48,85.25 104.47,84.06 C102.69,83.36 102.41,81.71 99.68,80.96 C97.62,80.4 93.95,82.74 91.05,86.22 C87.84,90.05 83.14,96.12 77.35,97.2 C71.81,98.23 68.06,95.7 67.31,93.63 Z" fill="#EE7FAC"/>
  <path d="M48.44,15.17 C47.7,17.97 44.69,21.74 44.87,23.8 C45.06,25.86 48.97,27.84 47.12,30.09 C42.71,35.44 36.84,40.56 34.54,42.76 C30.14,46.99 28.83,51.4 29.3,56 C29.84,61.34 35.78,64.18 35.59,63.98 C34.09,62.38 31.37,59.57 32.68,56 C34.14,52.04 38.03,47.93 46.1,41.73 C54.17,35.53 60.27,31.69 59.8,20.71 C59.33,9.73 54.83,4.76 52.01,5.69 C48.77,6.77 49.85,9.82 48.44,15.17 Z" fill="#EE7FAC"/>
  <path d="M72.15,47.55 A2.47 2.44 0 1 1 67.21,47.55 A2.47 2.44 0 1 1 72.15,47.55 Z" fill="#FEA7A5"/>
  <path d="M87.68,49.66 A2.16 2.21 0 1 1 83.36,49.66 A2.16 2.21 0 1 1 87.68,49.66 Z" fill="#FEA7A5"/>
  <path d="M82.32,38.03 A1.97 2.02 0 1 1 78.38,38.03 A1.97 2.02 0 1 1 82.32,38.03 Z" fill="#FEA7A5"/>
  <path d="M92.65,27.47 A1.97 2.06 0 1 1 88.71,27.47 A1.97 2.06 0 1 1 92.65,27.47 Z" fill="#FEA7A5"/>
  <path d="M96.5,35.16 A1.97 1.97 0 1 1 92.56,35.16 A1.97 1.97 0 1 1 96.5,35.16 Z" fill="#FEA7A5"/>
  <path d="M106.35,29.58 A1.83 1.83 0 1 1 102.69,29.58 A1.83 1.83 0 1 1 106.35,29.58 Z" fill="#FEA7A5"/>
  <path d="M97.287,43.177 C98.232,43.607 98.642,44.738 98.202,45.703 C97.763,46.668 96.641,47.101 95.696,46.671 C94.751,46.241 94.341,45.11 94.781,44.145 C95.22,43.18 96.343,42.746 97.287,43.177 Z" fill="#FEA7A5"/>
  <path d="M68.62,62.19 A2.06 2.06 0 1 1 64.5,62.19 A2.06 2.06 0 1 1 68.62,62.19 Z" fill="#FEA7A5"/>
  <path d="M80.54,61.63 A2.02 2.16 0 1 1 76.5,61.63 A2.02 2.16 0 1 1 80.54,61.63 Z" fill="#FEA7A5"/>
  <path d="M50.32,68.29 C50.79,71.67 47.69,74.48 44.88,74.02 C42.19,73.57 40.84,71.63 40.84,68.86 C40.84,66.09 42.79,64.17 45.53,64.17 C48.28,64.16 49.96,65.66 50.32,68.29 Z" fill="#2D2E31"/>
  <path d="M65.15,82.37 C65.62,85.75 63.01,88.38 59.52,87.81 C57.22,87.43 55.39,85.42 55.39,82.65 C55.39,79.88 57.43,78.15 60.18,78.15 C62.92,78.15 64.78,79.74 65.15,82.37 Z" fill="#2D2E31"/>
  <path d="M52.53,15.08 C52.53,15.08 54.64,14.52 54.74,12.55 C54.83,10.72 53.66,9.59 52.16,9.64 C50.66,9.69 49.72,11.14 49.81,12.5 C49.89,13.67 50.84,14.52 50.84,14.52 C50.84,14.52 49.25,14.24 48.59,16.02 C47.84,18.04 49.48,18.84 49.48,18.84 C49.48,18.84 47.56,18.51 46.71,20.01 C45.94,21.38 46.01,22.78 47.7,23.9 C48.87,24.68 50.81,23.57 51.27,22.26 C51.79,20.76 50.57,19.26 50.57,19.26 C50.57,19.26 52.46,19.75 53.1,17.71 C53.65,15.92 52.53,15.08 52.53,15.08 Z" fill="#A363AF"/>
  <path d="M114.84,76.93 C114.84,76.93 114.93,75.15 117.19,74.96 C118.56,74.85 119.86,75.52 119.96,77.02 C120.05,78.52 119.4,79.46 117.99,79.74 C116.36,80.07 115.27,79.27 115.27,79.27 C115.27,79.27 115.13,80.36 113.58,80.96 C111.75,81.66 110.58,80.49 110.58,80.49 C110.58,80.49 110.7,82.18 109.45,82.84 C107.76,83.73 106.12,83.31 105.46,81.85 C104.7,80.17 105.37,78.75 106.87,78.14 C108.84,77.34 109.92,78.8 109.92,78.8 C109.92,78.8 109.75,76.76 111.84,76.08 C113.72,75.47 114.84,76.93 114.84,76.93 Z" fill="#A363AF"/>
</svg>
